X:184 
T:Satin Slipper Reel [2], The
B:CRE5.116ii (SlipÃÂÃÂÃÂÃÂ©ar SrÃÂÃÂÃÂÃÂ³il 2)
F:file ID: cre.5/184sat_s2
Q:180
M:4/4
R:reel
K:D
A2FB AFFA|d2cA BFFB|AFAB dcdf|edcA BedB|
A2FB ADFA|d2cA BFFB|AFAB dcdf|edcA Bcde||
f2df g2eg|f2df edcA|fefa gfgb|afdf e2 fa|
bff2 afef|dfed BAFB|AFAB dcdf|"16"edcA BcdB||
"16-17 last time" edcA cAGE|D8|]

%%%

